X:18
M:4/4
L:1/4
K:C
G | E A G c | c B c G | c G A ^F | G3 B | c A d B | c A B !sintro!G | A c d B | c3 !eintro!|]
